X: 1
T:Donegal Reel
M:4/4
L:1/8
Q:120
S:played at local session in Hobart
R:Reel
K:D
|:D2 DE FDFA|dFAF BFAF|E2 EF GFGA|BdAF EGFE|
D2 DE FDFA|d~F3 ABde|(3fgf) (3efe) dBAG|1 FAEA D2 AF:|2 FAEA D2 AB||
|:defg afdf|afdf a2 gf|edef gfed|cdef g2 fe|defg afdf|afdf abag|
(3fgf) (3efe) dBAG|1 FAEA D2 AF:|2 FAEA D2 AB||
